; generated by PrusaSlicer 2.6.1+MacOS-x64 on 2023-12-13 at 21:15:20 UTC


;
;
; 

; external perimeters extrusion width = 0.45mm
; perimeters extrusion width = 0.45mm
; infill extrusion width = 0.45mm
; solid infill extrusion width = 0.45mm
; top infill extrusion width = 0.40mm
; first layer extrusion width = 0.42mm

M73 P0 R98
M73 Q0 S99
M201 X1000 Y1000 Z200 E5000 ; sets maximum accelerations, mm/sec^2
M203 X200 Y200 Z12 E120 ; sets maximum feedrates, mm / sec
M204 S1250 T1250 ; sets acceleration (S) and retract acceleration (R), mm/sec^2
M205 X8.00 Y8.00 Z0.40 E4.50 ; sets the jerk limits, mm/sec
M205 S0 T0 ; sets the minimum extruding and travel feed rate, mm/sec
;TYPE:Custom
M862.3 P "MK3S" ; printer model check
M862.1 P0.4 ; nozzle diameter check
M115 U3.13.0 ; tell printer latest fw version
G90 ; use absolute coordinates
M83 ; extruder relative mode
M104 S215 ; set extruder temp
M140 S60 ; set bed temp
M190 S60 ; wait for bed temp
M109 S215 ; wait for extruder temp
G28 W ; home all without mesh bed level
G80 ; mesh bed leveling

G1 Z0.2 F720
G1 Y-3 F1000 ; go outside print area
G92 E0
G1 X60 E9 F1000 ; intro line
G1 X100 E12.5 F1000 ; intro line

G92 E0
M221 S95

; Don't change E values below. Excessive value can damage the printer.
M907 E430 ; set extruder motor current
G21 ; set units to millimeters
G90 ; use absolute coordinates
M83 ; use relative distances for extrusion
M900 K0.05 ; Filament gcode LA 1.5
M900 K30 ; Filament gcode LA 1.0
M107
;LAYER_CHANGE
;Z:0.2
;HEIGHT:0.2
;BEFORE_LAYER_CHANGE
G92 E0.0
;0.2


G1 E-.8 F2100
G1 Z.4 F720
;AFTER_LAYER_CHANGE
;0.2
G1 X87.765 Y53.193 F10800
G1 Z.2 F720
G1 E.8 F2100
M204 S800
;TYPE:Skirt/Brim
;WIDTH:0.42
G1 F1200
G1 X88.81 Y52.317 E.04275
G1 X89.75 Y52.123 E.03009
G1 X160.25 Y52.123 E2.21048
G1 X161.557 Y52.515 E.04278
G1 X162.433 Y53.56 E.04275
G1 X162.627 Y54.5 E.03009
G1 X162.627 Y155.5 E3.16678
G1 X162.235 Y156.807 E.04278
G1 X161.19 Y157.683 E.04275
G1 X160.25 Y157.877 E.03009
G1 X89.75 Y157.877 E2.21048
G1 X88.443 Y157.485 E.04278
G1 X87.567 Y156.44 E.04275
G1 X87.373 Y155.5 E.03009
G1 X87.373 Y54.5 E3.16678
G1 X87.747 Y53.25 E.04091
M204 S1000
; printing object Body1.stl id:0 copy 0
;WIPE_START
G1 F8640
G1 X88.81 Y52.317 E-.32658
G1 X89.75 Y52.123 E-.22162
G1 X90.841 Y52.123 E-.2518
;WIPE_END
G1 Z.6 F720
G1 X92.827 Y106.277 F10800
G1 Z.2 F720
G1 E.8 F2100
M204 S800
;TYPE:Perimeter
;WIDTH:0.419999
G1 F1200
G1 X93.123 Y105.786 E.01798
G1 X93.191 Y105.602 E.00615
G1 X93.279 Y105.098 E.01604
G1 X93.279 Y104.902 E.00615
G1 X93.191 Y104.398 E.01604
G1 X93.123 Y104.214 E.00615
G1 X92.868 Y103.771 E.01603
G1 X92.741 Y103.62 E.00619
G1 X92.349 Y103.292 E.01603
G1 X92.172 Y103.191 E.00639
G1 X91.69 Y103.023 E.016
G1 X91.235 Y102.987 E.01431
G1 X90.767 Y103.084 E.01499
G1 X90.443 Y103.252 E.01144
G1 X90.481 Y103.053 E.00635
G1 X90.528 Y102.51 E.01709
G1 X90.537 Y102 E.01599
G1 X90.537 Y55.287 E1.46465
G1 X106.759 Y55.286 E.50863
G1 X107.456 Y55.262 E.02187
G1 X108.002 Y55.193 E.01726
G1 X107.834 Y55.517 E.01144
G1 X107.734 Y56.014 E.0159
G1 X107.773 Y56.44 E.01341
M73 Q0 S98
G1 X107.941 Y56.922 E.016
G1 X108.042 Y57.099 E.00639
G1 X108.37 Y57.491 E.01603
G1 X108.521 Y57.618 E.00619
G1 X108.964 Y57.873 E.01603
G1 X109.148 Y57.941 E.00615
G1 X109.652 Y58.029 E.01604
G1 X109.848 Y58.029 E.00615
G1 X110.352 Y57.941 E.01604
G1 X110.536 Y57.873 E.00615
G1 X110.979 Y57.618 E.01603
G1 X111.13 Y57.491 E.00619
G1 X111.458 Y57.099 E.01603
G1 X111.559 Y56.922 E.00639
G1 X111.727 Y56.44 E.016
G1 X111.766 Y56.014 E.01341
G1 X111.666 Y55.517 E.0159
G1 X111.498 Y55.193 E.01144
G1 X111.697 Y55.231 E.00635
G1 X112.24 Y55.278 E.01709
G1 X112.75 Y55.287 E.01599
G1 X159.463 Y55.287 E1.46465
G1 X159.464 Y102.009 E1.46493
G1 X159.486 Y102.687 E.02127
G1 X159.557 Y103.252 E.01785
G1 X159.233 Y103.084 E.01144
G1 X158.715 Y102.986 E.01653
G1 X158.31 Y103.023 E.01275
G1 X157.828 Y103.191 E.016
G1 X157.651 Y103.292 E.00639
G1 X157.259 Y103.62 E.01603
G1 X157.132 Y103.771 E.00619
G1 X156.877 Y104.214 E.01603
G1 X156.809 Y104.398 E.00615
G1 X156.721 Y104.902 E.01604
G1 X156.721 Y105.098 E.00615
G1 X156.809 Y105.602 E.01604
G1 X156.877 Y105.786 E.00615
G1 X157.132 Y106.229 E.01603
G1 X157.259 Y106.38 E.00619
G1 X157.651 Y106.708 E.01603
G1 X157.828 Y106.809 E.00639
G1 X158.31 Y106.977 E.016
G1 X158.736 Y107.016 E.01341
G1 X159.233 Y106.916 E.0159
G1 X159.557 Y106.748 E.01144
G1 X159.519 Y106.947 E.00635
G1 X159.472 Y107.49 E.01709
G1 X159.463 Y108 E.01599
G1 X159.463 Y154.713 E1.46465
G1 X143.241 Y154.714 E.50863
G1 X142.544 Y154.738 E.02187
G1 X141.998 Y154.807 E.01726
G1 X142.166 Y154.483 E.01144
G1 X142.266 Y153.986 E.0159
G1 X142.227 Y153.56 E.01341
G1 X142.059 Y153.078 E.016
G1 X141.958 Y152.901 E.00639
G1 X141.63 Y152.509 E.01603
G1 X141.479 Y152.382 E.00619
G1 X141.036 Y152.127 E.01603
G1 X140.652 Y152.004 E.01264
G1 X140.142 Y151.97 E.01603
G1 X139.646 Y152.06 E.01581
G1 X139.464 Y152.127 E.00608
G1 X139.021 Y152.382 E.01603
G1 X138.87 Y152.509 E.00619
G1 X138.542 Y152.901 E.01603
G1 X138.441 Y153.078 E.00639
G1 X138.273 Y153.56 E.016
G1 X138.234 Y153.986 E.01341
G1 X138.334 Y154.483 E.0159
G1 X138.502 Y154.807 E.01144
G1 X138.303 Y154.769 E.00635
G1 X137.76 Y154.722 E.01709
G1 X137.25 Y154.713 E.01599
G1 X90.537 Y154.713 E1.46465
G1 X90.536 Y107.991 E1.46493
G1 X90.512 Y107.294 E.02187
G1 X90.443 Y106.748 E.01726
G1 X90.767 Y106.916 E.01144
G1 X91.264 Y107.016 E.0159
G1 X91.69 Y106.977 E.01341
G1 X92.172 Y106.809 E.016
G1 X92.349 Y106.708 E.00639
G1 X92.789 Y106.323 E.01833
M204 S1000
G1 X92.622 Y105.895 F10800
M204 S800
;TYPE:External perimeter
G1 F1200
G1 X92.819 Y105.536 E.01284
G1 X92.908 Y104.967 E.01806
G1 X92.797 Y104.402 E.01805
G1 X92.499 Y103.909 E.01806
G1 X92.048 Y103.547 E.01813
G1 X91.566 Y103.379 E.016
G1 X91.228 Y103.364 E.01061
G1 X90.961 Y103.415 E.00852
G1 X90.641 Y103.567 E.01111
G1 X90.145 Y104.047 E.02164
G1 X89.96 Y104.353 E.01121
G1 X89.96 Y104.012 E.01069
G1 X90.001 Y103.513 E.0157
G1 X90.106 Y103.02 E.0158
G1 X90.151 Y102.506 E.01618
G1 X90.159 Y102.003 E.01577
G1 X90.16 Y54.91 E1.47657
G1 X106.753 Y54.909 E.52026
G1 X107.268 Y54.901 E.01615
G1 X107.802 Y54.85 E.01682
G1 X108.298 Y54.746 E.01589
G1 X109.103 Y54.71 E.02527
G1 X108.797 Y54.895 E.01121
G1 X108.317 Y55.391 E.02164
G1 X108.244 Y55.524 E.00476
G1 X108.119 Y55.939 E.01359
G1 X108.129 Y56.316 E.01182
G1 X108.331 Y56.857 E.01811
G1 X108.709 Y57.291 E.01805
G1 X109.214 Y57.569 E.01807
G1 X109.783 Y57.658 E.01806
G1 X110.348 Y57.547 E.01805
G1 X110.841 Y57.249 E.01806
G1 X111.203 Y56.798 E.01813
G1 X111.371 Y56.316 E.016
G1 X111.389 Y56.004 E.0098
G1 X111.336 Y55.713 E.00927
G1 X111.183 Y55.391 E.01118
G1 X110.682 Y54.876 E.02253
G1 X110.209 Y54.664 E.01625
G1 X111.237 Y54.751 E.03235
G1 X111.73 Y54.856 E.0158
G1 X112.246 Y54.901 E.01624
G1 X112.747 Y54.909 E.01571
G1 X159.84 Y54.91 E1.47657
G1 X159.841 Y102.003 E1.47657
M73 P0 R97
G1 X159.849 Y102.518 E.01615
G1 X159.894 Y103.02 E.0158
G1 X159.999 Y103.513 E.0158
G1 X160.04 Y104.012 E.0157
G1 X160.04 Y104.353 E.01069
G1 X159.855 Y104.047 E.01121
G1 X159.359 Y103.567 E.02164
G1 X159.078 Y103.427 E.00984
G1 X158.825 Y103.377 E.00809
G1 X158.434 Y103.379 E.01226
G1 X157.893 Y103.581 E.01811
G1 X157.459 Y103.959 E.01805
G1 X157.181 Y104.464 E.01807
G1 X157.092 Y105.033 E.01806
G1 X157.203 Y105.598 E.01805
G1 X157.501 Y106.091 E.01806
G1 X157.952 Y106.453 E.01813
G1 X158.434 Y106.621 E.016
G1 X158.746 Y106.639 E.0098
G1 X159.037 Y106.586 E.00927
G1 X159.359 Y106.433 E.01118
G1 X159.855 Y105.953 E.02164
G1 X160.04 Y105.647 E.01121
G1 X160.04 Y105.988 E.01069
G1 X159.999 Y106.487 E.0157
G1 X159.894 Y106.98 E.0158
G1 X159.849 Y107.496 E.01624
G1 X159.841 Y107.997 E.01571
G1 X159.84 Y155.09 E1.47657
G1 X143.247 Y155.091 E.52026
G1 X142.732 Y155.099 E.01615
G1 X142.198 Y155.15 E.01682
G1 X141.702 Y155.254 E.01589
G1 X140.897 Y155.29 E.02527
G1 X141.203 Y155.105 E.01121
G1 X141.683 Y154.609 E.02164
G1 X141.756 Y154.476 E.00476
G1 X141.881 Y154.061 E.01359
G1 X141.871 Y153.684 E.01182
G1 X141.669 Y153.143 E.01811
G1 X141.291 Y152.709 E.01805
G1 X140.848 Y152.453 E.01604
G1 X140.554 Y152.368 E.0096
G1 X140.192 Y152.344 E.01138
G1 X139.652 Y152.453 E.01727
G1 X139.159 Y152.751 E.01806
G1 X138.797 Y153.202 E.01813
G1 X138.629 Y153.684 E.016
G1 X138.611 Y153.996 E.0098
G1 X138.664 Y154.287 E.00927
G1 X138.817 Y154.609 E.01118
G1 X139.297 Y155.105 E.02164
G1 X139.603 Y155.29 E.01121
G1 X139.262 Y155.29 E.01069
G1 X138.763 Y155.249 E.0157
G1 X138.27 Y155.144 E.0158
G1 X137.754 Y155.099 E.01624
G1 X137.253 Y155.091 E.01571
G1 X90.16 Y155.09 E1.47657
G1 X90.159 Y107.997 E1.47657
M73 P1 R97
M73 Q1 S98
G1 X90.151 Y107.482 E.01615
G1 X90.1 Y106.948 E.01682
G1 X89.996 Y106.452 E.01589
G1 X89.96 Y105.647 E.02527
G1 X90.145 Y105.953 E.01121
G1 X90.641 Y106.433 E.02164
G1 X90.774 Y106.506 E.00476
G1 X91.189 Y106.631 E.01359
G1 X91.566 Y106.621 E.01182
G1 X92.107 Y106.419 E.01811
G1 X92.541 Y106.041 E.01805
G1 X92.593 Y105.947 E.00337
M204 S1000
G1 X93.021 Y105.923 F10800
;WIPE_START
G1 F8640
G1 X92.819 Y105.536 E-.1083
G1 X92.908 Y104.967 E-.13298
G1 X92.797 Y104.402 E-.13295
G1 X92.499 Y103.909 E-.13302
G1 X92.048 Y103.547 E-.13353
G1 X91.566 Y103.379 E-.11786
G1 X91.387 Y103.371 E-.04136
;WIPE_END
G1 Z.6 F720
G1 X109.724 Y54.626 F10800
G1 Z.2 F720
G1 E.8 F2100
M204 S800
;WIDTH:0.38292
G1 F1200
G1 X110.209 Y54.664 E.01375
M204 S1000
;WIPE_START
G1 F8640
G1 X109.724 Y54.626 E-.11233
;WIPE_END
G1 E-.68767 F2100
G1 Z.6 F720
G1 X159.293 Y56.22 F10800
G1 Z.2 F720
G1 E.8 F2100
M204 S800
;TYPE:Solid infill
;WIDTH:0.420678
G1 F1200
G1 X158.699 Y55.626 E.02639
G1 X158.165 Y55.626 E.01677
G1 X159.124 Y56.585 E.0426
G1 X159.124 Y57.119 E.01677
G1 X157.631 Y55.626 E.06632
G1 X157.097 Y55.626 E.01677
G1 X159.124 Y57.653 E.09004
G1 X159.124 Y58.188 E.0168
G1 X156.562 Y55.626 E.11381
G1 X156.028 Y55.626 E.01677
G1 X159.124 Y58.722 E.13753
G1 X159.124 Y59.256 E.01677
G1 X155.494 Y55.626 E.16125
G1 X154.96 Y55.626 E.01677
G1 X159.124 Y59.79 E.18497
G1 X159.124 Y60.325 E.0168
G1 X154.425 Y55.626 E.20874
G1 X153.891 Y55.626 E.01677
G1 X159.124 Y60.859 E.23246
G1 X159.124 Y61.393 E.01677
G1 X153.357 Y55.626 E.25618
G1 X152.823 Y55.626 E.01677
G1 X159.124 Y61.927 E.2799
G1 X159.124 Y62.462 E.0168
G1 X152.288 Y55.626 E.30366
G1 X151.754 Y55.626 E.01677
G1 X159.124 Y62.996 E.32739
G1 X159.124 Y63.53 E.01677
G1 X151.22 Y55.626 E.35111
G1 X150.686 Y55.626 E.01677
G1 X159.124 Y64.064 E.37483
G1 X159.124 Y64.599 E.0168
G1 X150.151 Y55.626 E.39859
G1 X149.617 Y55.626 E.01677
G1 X159.124 Y65.133 E.42231
G1 X159.124 Y65.667 E.01677
G1 X149.083 Y55.626 E.44604
G1 X148.549 Y55.626 E.01677
G1 X159.124 Y66.201 E.46976
G1 X159.124 Y66.736 E.0168
G1 X148.014 Y55.626 E.49352
G1 X147.48 Y55.626 E.01677
G1 X159.124 Y67.27 E.51724
G1 X159.124 Y67.804 E.01677
G1 X146.946 Y55.626 E.54096
G1 X146.412 Y55.626 E.01677
G1 X159.124 Y68.338 E.56469
G1 X159.124 Y68.872 E.01677
G1 X145.878 Y55.626 E.58841
G1 X145.343 Y55.626 E.0168
G1 X159.124 Y69.407 E.61217
G1 X159.124 Y69.941 E.01677
G1 X144.809 Y55.626 E.63589
G1 X144.275 Y55.626 E.01677
G1 X159.124 Y70.475 E.65961
G1 X159.124 Y71.009 E.01677
G1 X143.741 Y55.626 E.68334
G1 X143.206 Y55.626 E.0168
G1 X159.124 Y71.544 E.7071
G1 X159.124 Y72.078 E.01677
G1 X142.672 Y55.626 E.73082
G1 X142.138 Y55.626 E.01677
G1 X159.124 Y72.612 E.75454
G1 X159.124 Y73.146 E.01677
G1 X141.604 Y55.626 E.77826
G1 X141.069 Y55.626 E.0168
G1 X159.124 Y73.681 E.80203
G1 X159.124 Y74.215 E.01677
G1 X140.535 Y55.626 E.82575
G1 X140.001 Y55.626 E.01677
G1 X159.124 Y74.749 E.84947
G1 X159.124 Y75.283 E.01677
M73 Q1 S97
G1 X139.467 Y55.626 E.87319
G1 X138.932 Y55.626 E.0168
G1 X159.124 Y75.818 E.89696
G1 X159.124 Y76.352 E.01677
G1 X138.398 Y55.626 E.92068
G1 X137.864 Y55.626 E.01677
G1 X159.124 Y76.886 E.9444
G1 X159.124 Y77.42 E.01677
G1 X137.33 Y55.626 E.96812
G1 X136.796 Y55.626 E.01677
G1 X159.124 Y77.954 E.99184
G1 X159.124 Y78.489 E.0168
G1 X136.261 Y55.626 E1.01561
G1 X135.727 Y55.626 E.01677
G1 X159.124 Y79.023 E1.03933
G1 X159.124 Y79.557 E.01677
G1 X135.193 Y55.626 E1.06305
G1 X134.659 Y55.626 E.01677
G1 X159.124 Y80.091 E1.08677
G1 X159.124 Y80.626 E.0168
G1 X134.124 Y55.626 E1.11054
G1 X133.59 Y55.626 E.01677
G1 X159.124 Y81.16 E1.13426
G1 X159.124 Y81.694 E.01677
G1 X133.056 Y55.626 E1.15798
G1 X132.522 Y55.626 E.01677
M73 P1 R96
G1 X159.124 Y82.228 E1.1817
G1 X159.124 Y82.763 E.0168
G1 X131.987 Y55.626 E1.20546
G1 X131.453 Y55.626 E.01677
G1 X159.124 Y83.297 E1.22919
G1 X159.124 Y83.831 E.01677
G1 X130.919 Y55.626 E1.25291
G1 X130.385 Y55.626 E.01677
M73 P2 R96
M73 Q2 S97
G1 X159.124 Y84.365 E1.27663
G1 X159.124 Y84.9 E.0168
G1 X129.85 Y55.626 E1.30039
G1 X129.316 Y55.626 E.01677
G1 X159.124 Y85.434 E1.32411
G1 X159.124 Y85.968 E.01677
G1 X128.782 Y55.626 E1.34784
G1 X128.248 Y55.626 E.01677
G1 X159.124 Y86.502 E1.37156
G1 X159.124 Y87.037 E.0168
G1 X127.713 Y55.626 E1.39532
G1 X127.179 Y55.626 E.01677
G1 X159.124 Y87.571 E1.41904
G1 X159.124 Y88.105 E.01677
G1 X126.645 Y55.626 E1.44276
G1 X126.111 Y55.626 E.01677
G1 X159.124 Y88.639 E1.46649
G1 X159.124 Y89.173 E.01677
G1 X125.577 Y55.626 E1.49021
G1 X125.042 Y55.626 E.0168
G1 X159.124 Y89.708 E1.51397
G1 X159.124 Y90.242 E.01677
G1 X124.508 Y55.626 E1.53769
G1 X123.974 Y55.626 E.01677
G1 X159.124 Y90.776 E1.56141
G1 X159.124 Y91.31 E.01677
M73 Q2 S96
G1 X123.44 Y55.626 E1.58513
G1 X122.905 Y55.626 E.0168
G1 X159.124 Y91.845 E1.6089
G1 X159.124 Y92.379 E.01677
G1 X122.371 Y55.626 E1.63262
G1 X121.837 Y55.626 E.01677
G1 X159.124 Y92.913 E1.65634
G1 X159.124 Y93.447 E.01677
G1 X121.303 Y55.626 E1.68006
G1 X120.768 Y55.626 E.0168
G1 X159.124 Y93.982 E1.70383
G1 X159.124 Y94.516 E.01677
G1 X120.234 Y55.626 E1.72755
G1 X119.7 Y55.626 E.01677
G1 X159.124 Y95.05 E1.75127
G1 X159.124 Y95.584 E.01677
M73 P2 R95
G1 X119.166 Y55.626 E1.77499
G1 X118.631 Y55.626 E.0168
G1 X159.124 Y96.119 E1.79876
G1 X159.124 Y96.653 E.01677
G1 X118.097 Y55.626 E1.82248
G1 X117.563 Y55.626 E.01677
M73 P3 R95
M73 Q3 S96
G1 X159.124 Y97.187 E1.8462
G1 X159.124 Y97.721 E.01677
G1 X117.029 Y55.626 E1.86992
G1 X116.495 Y55.626 E.01677
G1 X159.124 Y98.255 E1.89364
G1 X159.124 Y98.79 E.0168
G1 X115.96 Y55.626 E1.91741
G1 X115.426 Y55.626 E.01677
G1 X159.124 Y99.324 E1.94113
G1 X159.124 Y99.858 E.01677
G1 X114.892 Y55.626 E1.96485
G1 X114.358 Y55.626 E.01677
G1 X159.124 Y100.392 E1.98857
G1 X159.124 Y100.927 E.0168
G1 X113.823 Y55.626 E2.01234
G1 X113.289 Y55.626 E.01677
G1 X159.124 Y101.461 E2.03606
G1 X159.124 Y101.995 E.01677
G1 X112.755 Y55.626 E2.05978
G1 X112.211 Y55.616 E.01709
M73 Q3 S95
G1 X159.134 Y102.539 E2.08439
G1 X159.147 Y102.718 E.00564
G1 X158.878 Y102.658 E.00866
G1 X158.716 Y102.656 E.00509
G1 X112.094 Y56.033 E2.07104
G1 X112.098 Y56.287 E.00798
G1 X112.054 Y56.528 E.0077
G1 X158.222 Y102.696 E2.05085
G1 X157.825 Y102.833 E.01319
G1 X111.917 Y56.925 E2.0393
G1 X111.875 Y57.047 E.00405
G1 X111.741 Y57.283 E.00852
G1 X157.467 Y103.009 E2.03121
G1 X157.178 Y103.254 E.0119
G1 X111.496 Y57.572 E2.02926
G1 X111.238 Y57.848 E.01187
M73 P3 R94
G1 X156.902 Y103.512 E2.02846
G1 X156.702 Y103.847 E.01226
G1 X110.903 Y58.048 E2.03446
G1 X110.671 Y58.187 E.0085
M73 P4 R94
G1 X110.551 Y58.23 E.004
G1 X156.52 Y104.199 E2.04201
G1 X156.48 Y104.311 E.00374
M73 Q4 S95
G1 X156.428 Y104.641 E.01049
G1 X110.109 Y58.322 E2.05756
G1 X109.747 Y58.379 E.01151
G1 X109.61 Y58.357 E.00436
G1 X156.597 Y105.345 E2.08725
M204 S1000
;WIPE_START
G1 F8640
G1 X154.147 Y102.895 E-.8
;WIPE_END
G1 Z.6 F720
G1 X158.946 Y107.159 F10800
G1 Z.2 F720
G1 E.8 F2100
M204 S800
G1 F1200
G1 X159.142 Y107.355 E.00871
G1 X159.126 Y107.874 E.01631
G1 X158.42 Y107.168 E.03136
M204 S1000
;WIPE_START
G1 F8640
G1 X159.126 Y107.874 E-.23054
G1 X159.142 Y107.355 E-.1199
G1 X158.946 Y107.159 E-.064
;WIPE_END
G1 E-.38556 F2100
G1 Z.6 F720
G1 X107.597 Y55.81 F10800
G1 Z.2 F720
G1 E.8 F2100
M204 S800
G1 F1200
G1 X107.395 Y55.608 E.00897
G1 X106.876 Y55.624 E.01631
G1 X107.582 Y56.33 E.03136
M204 S1000
;WIPE_START
G1 F8640
G1 X106.876 Y55.624 E-.23054
G1 X107.395 Y55.608 E-.1199
